svg/white/gold.svg

<?xml version="1.0" encoding="UTF-8"?>
<svg width="32px" height="32px" viewBox="0 0 32 32" version="1.1" xmlns="http://www.w3.org/2000/svg" xmlns:xlink="http://www.w3.org/1999/xlink">
    <!-- Generator: Sketch 52.5 (67469) - http://www.bohemiancoding.com/sketch -->
    <title>svg/white/gold</title>
    <desc>Created with Sketch.</desc>
    <g id="white/gold" stroke="none" stroke-width="1" fill="none" fill-rule="evenodd">
        <path d="M16,32 C7.163444,32 0,24.836556 0,16 C0,7.163444 7.163444,0 16,0 C24.836556,0 32,7.163444 32,16 C32,24.836556 24.836556,32 16,32 Z M15.75,4 C9.26065419,4 4,9.26065419 4,15.75 C4,22.2393458 9.26065419,27.5 15.75,27.5 C22.2393458,27.5 27.5,22.2393458 27.5,15.75 C27.5,12.6337062 26.2620571,9.64504777 24.0585047,7.44149532 C21.8549522,5.23794287 18.8662938,4 15.75,4 Z M15.75,24.57 C10.8788485,24.57 6.93,20.6211515 6.93,15.75 C6.93,10.8788485 10.8788485,6.93 15.75,6.93 C20.6211515,6.93 24.57,10.8788485 24.57,15.75 C24.57,18.0892094 23.6407527,20.332611 21.9866818,21.9866818 C20.332611,23.6407527 18.0892094,24.57 15.75,24.57 Z M12.82,15.76 L15.76,20.16 L18.68,15.76 L15.76,11.35 L12.82,15.76 Z" id="Combined-Shape" fill="#FFFFFF" fill-rule="nonzero"></path>
    </g>
</svg>

<svg width="32" height="32" viewBox="0 0 32 32" xmlns="http://www.w3.org/2000/svg"><path d="M16 32C7.163 32 0 24.837 0 16S7.163 0 16 0s16 7.163 16 16-7.163 16-16 16zm-.25-28C9.26 4 4 9.26 4 15.75S9.26 27.5 15.75 27.5 27.5 22.24 27.5 15.75A11.75 11.75 0 0 0 15.75 4zm0 20.57a8.82 8.82 0 1 1 0-17.64 8.82 8.82 0 0 1 0 17.64zm-2.93-8.81l2.94 4.4 2.92-4.4-2.92-4.41-2.94 4.41z" fill="#FFF"/></svg>
